X: 16317
T: Groves, The
R: hornpipe
M: 4/4
K: Gmajor
G2 GF GABc|dDGD ADFD|F2 FE FGAB|cd (3gfe dcAF|
GBAF GABc|dGBG AFDyF|df (3efg fdcd|A2 GF G4:|
B2 BA Bcde|fdcd AF F2|DD F AF F2|dBcA BG G2|
B2 BA Bcde|(3gfe cA dBcA|dfeg fdcd|A2 GF G4:|
d2 g2 g2 fg|a2 ag fgfe|d^cde (3fgf fg|a2 (3gfe fdec|
d2 g2 g2 fg|a2 ag fgfe|dBeg fdcd|A2 GF G4:|
Gd (3Bcd Gd (3Bcd|Fc (3ABc Fc (3ABc|Gd (3Bcd GdBc|dcde fdcA|
Gd (3Bcd Gd (3Bcd|Fc (3ABc Fc (3ABc|d2 eg fdcd|A2 GF G4:|
gd (3Bcd gd (3Bcd|fc (3ABc fc (3ABc|gd (3Bcd gd (3Bcd|AG (3ABc ADFA|
dedB cecA|(3Bcd BG ADFA|df (3efg fdcd|A2 GF G4:|

